X:2
T:Song of Healing
M:3/4
L:1/8
Q:1/4=120
K:C
|: B2 A2 E2 | B2 A2 E2 | B2 A2 ED | E6 :|
|: F2 C2 B,2 | F2 C2 B,2 | F2 E2 [1 BA | B6 :| [2 B2 | G6 ||
A2 A2 A2 | d2 d2 d2 | A2 A2 A2 | d2 A4 | F2 F2 F2 | _B2 _B2 _B2 | E2 D2 A2 | E6 |

